public/maskface.svg

<svg fill="none" height="340" viewBox="0 0 340 340" width="340" xmlns="http://www.w3.org/2000/svg"><path clip-rule="evenodd" d="m170 0c93.888 0 170 76.1116 170 170 0 93.888-76.112 170-170 170-93.8884 0-170-76.112-170-170 0-93.8884 76.1116-170 170-170zm0 300.946c-72.3195 0-130.9459-58.627-130.9459-130.946 0-72.3195 58.6264-130.9459 130.9459-130.9459 56.152 0 104.048 35.3432 122.658 84.9969l26.691-.001c-19.622-63.8505-79.065-110.2662-149.349-110.2662-86.2758 0-156.2162 69.9404-156.2162 156.2162 0 86.276 69.9404 156.216 156.2162 156.216 76.869 0 140.771-55.52 153.791-128.648h-25.752c-12.66 59.082-65.177 103.378-128.039 103.378zm82.703-163.108h-165.4057v98.324c0 9.044 7.2581 16.392 16.2667 16.538l.274.003h132.324c9.044 0 16.392-7.258 16.538-16.267l.003-.274v-38.594h-26.716l-.309.619c-10.303 20.35-31.413 34.299-55.783 34.299-29.476 0-54.185-20.409-60.767-47.867l-.194-.835h143.769zm-42.58 59.73h-80.455l.265.384c8.802 12.609 23.419 20.857 39.962 20.857 16.544 0 31.161-8.248 39.963-20.857zm112.778-59.732h-25.935c2.599 10.29 3.98 21.066 3.98 32.164 0 4.656-.243 9.255-.717 13.786h25.387c.397-4.542.6-9.14.6-13.786 0-11.026-1.142-21.784-3.315-32.164zm-188.279 11.029c12.832 0 23.471 9.394 25.413 21.681l.056.373h-14.1l-.055-.169c-1.601-4.711-6.062-8.101-11.314-8.101-5.253 0-9.714 3.39-11.314 8.101l-.056.169h-14.1l.057-.373c1.942-12.287 12.58-21.681 25.413-21.681zm70.756 0c12.833 0 23.471 9.394 25.413 21.681l.057.373h-14.1l-.056-.169c-1.6-4.711-6.061-8.101-11.314-8.101-5.252 0-9.713 3.39-11.314 8.101l-.055.169h-14.1l.056-.373c1.942-12.287 12.581-21.681 25.413-21.681zm30.784-61.5677h-132.324c-9.0439 0-16.3924 7.2581-16.5385 16.2667l-.0022.274v20.216h165.4057v-20.216c0-9.0439-7.258-16.3924-16.267-16.5385z" fill="#edf3fe" fill-rule="evenodd"/></svg>

<svg width="340" height="340" viewBox="0 0 340 340" fill="none" xmlns="http://www.w3.org/2000/svg">
<path fill-rule="evenodd" clip-rule="evenodd" d="M170 0C263.888 0 340 76.1116 340 170C340 263.888 263.888 340 170 340C76.1116 340 0 263.888 0 170C0 76.1116 76.1116 0 170 0ZM170 300.946C97.6805 300.946 39.0541 242.319 39.0541 170C39.0541 97.6805 97.6805 39.0541 170 39.0541C226.152 39.0541 274.048 74.3973 292.658 124.051L319.349 124.05C299.727 60.1995 240.284 13.7838 170 13.7838C83.7242 13.7838 13.7838 83.7242 13.7838 170C13.7838 256.276 83.7242 326.216 170 326.216C246.869 326.216 310.771 270.696 323.791 197.568L298.039 197.568C285.379 256.65 232.862 300.946 170 300.946ZM252.703 137.838H87.2973V236.162C87.2973 245.206 94.5554 252.554 103.564 252.7L103.838 252.703H236.162C245.206 252.703 252.554 245.445 252.7 236.436L252.703 236.162V197.568L225.987 197.568L225.678 198.187C215.375 218.537 194.265 232.486 169.895 232.486C140.419 232.486 115.71 212.077 109.128 184.619L108.934 183.784L252.703 183.784V137.838ZM210.123 197.568H129.668L129.933 197.952C138.735 210.561 153.352 218.809 169.895 218.809C186.439 218.809 201.056 210.561 209.858 197.952L210.123 197.568ZM322.901 137.836H296.966C299.565 148.126 300.946 158.902 300.946 170C300.946 174.656 300.703 179.255 300.229 183.786L325.616 183.786C326.013 179.244 326.216 174.646 326.216 170C326.216 158.974 325.074 148.216 322.901 137.836ZM134.622 148.865C147.454 148.865 158.093 158.259 160.035 170.546L160.091 170.919H145.991L145.936 170.75C144.335 166.039 139.874 162.649 134.622 162.649C129.369 162.649 124.908 166.039 123.308 170.75L123.252 170.919H109.152L109.209 170.546C111.151 158.259 121.789 148.865 134.622 148.865ZM205.378 148.865C218.211 148.865 228.849 158.259 230.791 170.546L230.848 170.919H216.748L216.692 170.75C215.092 166.039 210.631 162.649 205.378 162.649C200.126 162.649 195.665 166.039 194.064 170.75L194.009 170.919H179.909L179.965 170.546C181.907 158.259 192.546 148.865 205.378 148.865ZM236.162 87.2973H103.838C94.7941 87.2973 87.4456 94.5554 87.2995 103.564L87.2973 103.838V124.054H252.703V103.838C252.703 94.7941 245.445 87.4456 236.436 87.2995L236.162 87.2973Z" fill="#EDF3FE"/>
</svg>
